assets/icons/trophy3.svg

<svg height="151.596" viewBox="0 0 151.596 151.596" width="151.596" xmlns="http://www.w3.org/2000/svg"><path d="m212.823 408.183-30.734-8.883-30.734 8.883a3.608 3.608 0 0 0 -.355 1.687v18.357h62.178v-18.357a3.608 3.608 0 0 0 -.355-1.687z" fill="#646d73" transform="translate(-106.291 -281.073)"/><path d="m287.089 428.228v-18.358a3.608 3.608 0 0 0 -.355-1.688l-30.734-8.882v28.928z" fill="#474f54" transform="translate(-180.202 -281.073)"/><path d="m147.154 8.883h-22.693c.039-1.5.191-2.913.191-4.441a4.4 4.4 0 0 0 -4.441-4.442h-88.826a4.4 4.4 0 0 0 -4.441 4.441c0 1.528.152 2.941.19 4.441h-22.693a4.439 4.439 0 0 0 -4.441 4.442v11.25c0 24.8 19.865 44.943 44.346 46.24 5.1 7.022 11.153 12.233 18.04 15.169a66.362 66.362 0 0 1 -16.344 39.705 3.152 3.152 0 0 0 -.977 1.421h61.468a3.154 3.154 0 0 0 -.977-1.421c-3.02-3.109-15.278-18.032-16.344-39.705 6.888-2.936 12.977-8.149 18.082-15.173 24.46-1.318 44.3-21.451 44.3-46.236v-11.25a4.439 4.439 0 0 0 -4.441-4.441zm-138.271 15.691v-6.809h18.632c1.153 14.679 4.336 30.226 11.026 43.435-16.77-3.773-29.658-18.729-29.658-36.626zm133.831 0c0 17.888-12.877 32.836-29.635 36.621 6.637-13.212 9.838-28.608 11-43.43h18.633z" fill="#cd7f32"/><path d="m327.357 8.883h-22.694c.039-1.5.191-2.913.191-4.441a4.4 4.4 0 0 0 -4.441-4.442h-44.413v127.109h30.734a3.154 3.154 0 0 0 -.977-1.421c-3.02-3.109-15.278-18.032-16.344-39.705 6.888-2.936 12.977-8.149 18.082-15.173 24.46-1.318 44.3-21.451 44.3-46.236v-11.25a4.439 4.439 0 0 0 -4.441-4.441zm-4.441 15.692c0 17.888-12.877 32.836-29.635 36.621 6.638-13.212 9.839-28.608 11-43.43h18.633z" fill="#935c25" transform="translate(-180.202)"/><path d="m217.388 104.475-7.087-3.682-7.087 3.682a4.439 4.439 0 0 1 -6.428-4.667l1.3-7.889-5.682-5.608a4.438 4.438 0 0 1 2.455-7.555l7.894-1.188 3.574-7.143c1.509-3.01 6.436-3.01 7.946 0l3.574 7.143 7.894 1.188a4.438 4.438 0 0 1 2.455 7.555l-5.682 5.608 1.3 7.889a4.439 4.439 0 0 1 -6.428 4.667z" fill="#9f6226" transform="translate(-134.503 -47.984)"/><path d="m263.087 104.475a4.439 4.439 0 0 0 6.428-4.667l-1.3-7.889 5.682-5.608a4.438 4.438 0 0 0 -2.455-7.555l-7.894-1.188-3.574-7.143a4.346 4.346 0 0 0 -3.974-2.259v32.627z" fill="#643e18" transform="translate(-180.202 -47.983)"/><path d="m196.5 490.883h-71.06a4.441 4.441 0 0 1 0-8.883h71.06a4.441 4.441 0 0 1 0 8.883z" fill="#474f54" transform="translate(-85.174 -339.287)"/><path d="m291.53 482h-35.53v8.883h35.53a4.441 4.441 0 0 0 0-8.883z" fill="#32393f" transform="translate(-180.202 -339.287)"/></svg>

<svg id="trophy" xmlns="http://www.w3.org/2000/svg" width="151.596" height="151.596" viewBox="0 0 151.596 151.596">
  <g id="Group_2061" data-name="Group 2061" transform="translate(44.709 118.227)">
    <path id="Path_4117" data-name="Path 4117" d="M212.823,408.183,182.089,399.3l-30.734,8.883A3.608,3.608,0,0,0,151,409.87v18.357h62.178V409.87A3.608,3.608,0,0,0,212.823,408.183Z" transform="translate(-151 -399.3)" fill="#646d73"/>
  </g>
  <path id="Path_4118" data-name="Path 4118" d="M287.089,428.228V409.87a3.608,3.608,0,0,0-.355-1.688L256,399.3v28.928Z" transform="translate(-180.202 -281.073)" fill="#474f54"/>
  <path id="Path_4119" data-name="Path 4119" d="M147.154,8.883H124.461c.039-1.5.191-2.913.191-4.441A4.4,4.4,0,0,0,120.211,0H31.385a4.4,4.4,0,0,0-4.441,4.441c0,1.528.152,2.941.19,4.441H4.441A4.439,4.439,0,0,0,0,13.324V24.574c0,24.8,19.865,44.943,44.346,46.24,5.1,7.022,11.153,12.233,18.04,15.169a66.362,66.362,0,0,1-16.344,39.705,3.152,3.152,0,0,0-.977,1.421h61.468a3.154,3.154,0,0,0-.977-1.421c-3.02-3.109-15.278-18.032-16.344-39.705,6.888-2.936,12.977-8.149,18.082-15.173,24.46-1.318,44.3-21.451,44.3-46.236V13.324a4.439,4.439,0,0,0-4.441-4.441ZM8.883,24.574V17.765H27.515C28.668,32.444,31.851,47.991,38.541,61.2,21.771,57.427,8.883,42.471,8.883,24.574Zm133.831,0c0,17.888-12.877,32.836-29.635,36.621,6.637-13.212,9.838-28.608,11-43.43h18.633Z" fill="#cd7f32"/>
  <path id="Path_4120" data-name="Path 4120" d="M327.357,8.883H304.663c.039-1.5.191-2.913.191-4.441A4.4,4.4,0,0,0,300.413,0H256V127.109h30.734a3.154,3.154,0,0,0-.977-1.421c-3.02-3.109-15.278-18.032-16.344-39.705,6.888-2.936,12.977-8.149,18.082-15.173,24.46-1.318,44.3-21.451,44.3-46.236V13.324a4.439,4.439,0,0,0-4.441-4.441Zm-4.441,15.692c0,17.888-12.877,32.836-29.635,36.621,6.638-13.212,9.839-28.608,11-43.43h18.633Z" transform="translate(-180.202)" fill="#935c25"/>
  <g id="Trophy_31_" transform="translate(56.576 20.183)">
    <g id="Group_2062" data-name="Group 2062">
      <path id="Path_4121" data-name="Path 4121" d="M217.388,104.475l-7.087-3.682-7.087,3.682a4.439,4.439,0,0,1-6.428-4.667l1.3-7.889-5.682-5.608a4.438,4.438,0,0,1,2.455-7.555l7.894-1.188,3.574-7.143c1.509-3.01,6.436-3.01,7.946,0l3.574,7.143,7.894,1.188a4.438,4.438,0,0,1,2.455,7.555l-5.682,5.608,1.3,7.889a4.439,4.439,0,0,1-6.428,4.667Z" transform="translate(-191.079 -68.167)" fill="#9f6226"/>
    </g>
  </g>
  <path id="Path_4122" data-name="Path 4122" d="M263.087,104.475a4.439,4.439,0,0,0,6.428-4.667l-1.3-7.889,5.682-5.608a4.438,4.438,0,0,0-2.455-7.555l-7.894-1.188-3.574-7.143A4.346,4.346,0,0,0,256,68.166v32.627Z" transform="translate(-180.202 -47.983)" fill="#643e18"/>
  <g id="Group_2063" data-name="Group 2063" transform="translate(35.826 142.713)">
    <path id="Path_4123" data-name="Path 4123" d="M196.5,490.883h-71.06a4.441,4.441,0,0,1,0-8.883H196.5a4.441,4.441,0,0,1,0,8.883Z" transform="translate(-121 -482)" fill="#474f54"/>
  </g>
  <path id="Path_4124" data-name="Path 4124" d="M291.53,482H256v8.883h35.53a4.441,4.441,0,0,0,0-8.883Z" transform="translate(-180.202 -339.287)" fill="#32393f"/>
</svg>
